X:1
T:Nyland, 76.76 D
T:Nyland, 76.76 D
T:Finnish Tune
T:Public Domain Courtesy of the Cyber Hymnal™
C:Finnish Tune
Z:Public Domain
Z:Courtesy of the Cyber Hymnal™
%%score ( 1 2 ) ( 3 4 )
L:1/8
Q:1/4=115
M:4/4
K:Eb
V:1 treble 
V:2 treble 
V:3 bass 
V:4 bass 
V:1
 [EB]2 | [EG]2 F2 [B,E]2 (FE) | C4 B,2 [DB]2 | [EB]2 [Ec]2 [EB]2 [FA]2 | [EG]6 [FB]2 | %5
 [EG]2 [DF]2 E2 (FE) | C4 B,2 B,2 | [CE]2 (FG) (AG) z x2 | E6 [EB]2 | [Ee]2 [Fd]2 c2 [GB]2 | %10
 B2 =A2 [FB]2 [B,B]2 | c2 [GB]2 A2 [EG]2 | F6 [FB]2 | [EG]2 F2 [B,E]2 (FE) | C4 B,2 [DB]2 | %15
 E2 (FG) (AG) F2 | E6 |] %17
V:2
 x2 | x2 (DC) x C2 x | C4 B,2 x2 | x8 | x8 | x4 E2 C2 | C4 B,2 B,2 | x2 E2 E2 (F2 E) | E6 x2 | %9
 x4 (EF) x2 | F4 x4 | (EF) x (C D) x3 | (E4 D2) x2 | x2 (DC) x C2 x | C4 B,2 x2 | E2 E2 E2 ED | %16
 E6 |] %17
V:3
 [E,G,]2 | [E,B,]2 [F,A,]2 G,2 [C,G,]2 | [F,A,]2 [E,G,]2 [D,F,]2 [F,A,]2 | %3
 [E,G,]2 A,2 [G,B,]2 [F,C]2 | [C,C]6 [D,B,]2 | [E,B,]2 B,2 [G,B,]2 [C,G,]2 | %6
 [F,A,]2 [E,G,]2 [D,F,]2 [G,,G,]2 | G,2 ([A,,C][G,,B,]) [F,,A,]2 [B,,B,]2 x | [E,G,]6 [E,G,]2 | %9
 [G,B,]2 ([F,A,][G,B,]) (CD) (ED) | [F,C]4 [B,,D]2 ED | (CD) [G,E]2 [F,A,]2 [E,B,]2 | %12
 [B,,B,]6 [D,F,]2 | [E,B,]2 [F,A,]2 G,2 [C,G,]2 | [F,A,]2 [E,G,]2 [D,F,]2 [B,,A,]2 | %15
 G,2 ([A,,C][G,,B,]) [F,,A,]2 [B,,B,]2 | [E,G,]6 |] %17
V:4
 x2 | x4 G,2 x2 | x8 | x2 A,2 x4 | x8 | x2 (B,A,) x4 | x8 | (C,B,,) x7 | x8 | x4 A,2 E,2 | x6 E,2 | %11
 A,2 x6 | x8 | x4 G,2 x2 | x8 | (C,B,,) x6 | x6 |] %17

